X:1
T:Title
L:1/8
M:4/4
K:Bb
V:1 treble nm="Grand Piano"
V:1
 z4 z2[Q:1/4=100] F2 | B2 AG A2 GF | G2 FE D2 ED | C2 G2 F2 E2 | D6 F2 | B2 AB c2 BA | %6
 B2 AG A2 G2 | F3 F A2 c2 | B6 d2 | d3 c B2 A2 | G2 F2 E2 c2 | c3 B A2 G2 | F2 E2 D2 d2 | %13
 d3 c e2 d2 | c2 B2 A2 G2 | F3 F A2 c2 | B6 z2 |] %17

